X:1
T:Baciai ma che
T:Baciai ma che
T:Enrico Radesca di Foggia
T:Source : Canzonette, madrigale & arie---Libro I---Milano---Heredes S.Tini & F.Lomazzi---1606. Editor : André Vierendeels (19/03/14).
T:Notes : Original clefs : C1, F4 Editorial accidentals above the staff Continuo slightly adapted
C:Enrico Radesca di Foggia
%%score [ 1 2 ] 3
L:1/8
Q:1/4=120
M:4/4
K:F
V:1 treble nm="Soprano" snm="S"
V:2 bass nm="Bass" snm="B"
V:3 bass nm="MusicXML Part"
V:1
 z2 G2 B4- | B2 B2 B2 A2 | G8 | F8 | z2 B2 d4- | d2 d2 d2 c2 | B8 | A2 A2 A2 B2 | c4 c4 | %9
w: Ba- ciai,|_ ma che mi|val-|se,|ba- ciai,|_ ma che mi|val-|se, at- ten- der|frut- to|
 ^c2 c2 c2 cd | ^c8 | ^c8 | z2 d2 d2 c2 | =B4 B4 | c6 B2 | A4 B4 | A8 | G8 :: d2 d2 _e4- | %19
w: d'a- mo- ro- so dol-|cez-|za,|se spar- s'il|se- me'in-|ar- ri-|da bel-|lez-|za:|son dol- cis-|
 e2 _e2 d4 | c4 c4 | B2 G2 A4 | A4 z2 d2 | ^c2 d2 d2 c2 | d4 d4 | z2 d2 B3 B | _e2 d2 c4 | %27
w: * si- m'i|ba- ci'a|chi ne pren-|de, quel|fin, che se n'at-|ten- de,|ma s'al- tro|non se'n co-|
 B2 d2 c2 B2 | A4 z4 | z2 c2 B2 A2 | G2 B2 A2 G2 | ^FDEF G4- | G2 A2 A4 | G=BBB c4- | %34
w: glie, tor- men- ti|son,|tor- men- ti|son, tor- men- ti|son dell' a- mo- ro-|* so vo-|glie, dell' a- mo- so-|
"^b" c2 B2 A4 | G8 :| %36
w: * so vo-|glie.|
V:2
 z2 G,2 G,4- | G,2 G,2 G,2 D,2 | _E,8 | B,,8 | z2 B,,2 B,4- | B,2 B,2 B,2 F,2 | G,8 | %7
w: Ba- ciai,|_ ma che mi|val-|se,|ba- ciai,|_ ma che mi|val-|
 D,2 D,2 D,2 G,2 | F,4 F,4 | A,2 A,2 A,2 A,B, | A,8 | A,2 A,2 A,2 G,2 | ^F,4 F,4 | %13
w: se, at- ten- der|frut- to|d'a- mo- ro- so dol-|cez-|za, se spar- s'il|se- me'in|
"^-natural" G,6 F,2 | E,4 E,4 | ^F,4 G,4 | D,8 | G,,8 :: G,2 G,2 _E,4- | E,2 _E,2 B,,4 | F,4 F,4 | %21
w: ar- ri-|da bel-|lez- *||za:|son dol- cis-|* si- m'i|ba- ci'a|
 G,2 _E,2 D,4 | D,4 z2 D,2 | A,2 B,2 A,2 A,2 | D,4 D,4 | z2 D,2 G,3 G, | _E,2 B,,2 F,4 | B,,4 z4 | %28
w: chi ne pren-|de, quel|fin, che se n'at-|ten- de,|ma s'al- tro|non se'n co-|glie,|
 z2 F,2 _E,2 D,2 | C,4 z4 | z2 G,2 F,2 _E,2 | D,4 z =B,,B,,B,, | C,2 C,2 D,4 | G,4 z E,E,E, | %34
w: tor- men- ti|son,|tor- men- ti|son dell' a- mo-|ro- so vo-|glie, dell' a- mo-|
 ^F,2 G,2 D,4 | G,,8 :| %36
w: ro- so vo-|glie.|
V:3
 G,8 | G,6 D,2 | _E,8 | B,,8 | B,8 | B,6 F,2 | G,8 | D,2 D,4 G,2 | F,8 |"^b" A,8 | A,8 | %11
 A,2 A,4 G,2 | ^F,8 |"^-natural" G,6 F,2 | E,8 | ^F,4 G,4 | D,8 | G,,8 :: G,4 _E,4- | E,4 B,,4 | %20
 F,4 F,4 | G,2 _E,2 D,4 | D,4 D,4 | A,2 B,2 A,4 | D,8 | D,4 G,4 | _E,2 C,2 F,4 | B,,2 B,2 A,2 G,2 | %28
 A,2 F,2 _E,2 D,2 | C,2 A,2 G,2 F,2 | G,2 G,2 F,2 _E,2 | D,4 =B,,4 | C,4 D,4 | G,4 C,4 | %34
 D,2 G,2 D,4 | G,,8 :| %36

